X:1
T:5 Songs from the Chinese Poets, 1st Series
T:The Ghost Road
T:To my Friend Alvin Langdon Coburn 
T:Five Songs from the Chinese Poets, 1st Series
T:Granville Bantock
T:2. The Ghost Road
T:Launcelot Cranmer-Byng after Fu Du 
T:Creative Commons copyright waiver (CC0 1.0 Universal)
T:Creative Commons copyright waiver (CC0 1.0 Universal)
T:Creative Commons copyright waiver (CC0 1.0 Universal)
T:Creative Commons copyright waiver (CC0 1.0 Universal)
T:Creative Commons copyright waiver (CC0 1.0 Universal)
T:Creative Commons copyright waiver (CC0 1.0 Universal)
T:Creative Commons copyright waiver (CC0 1.0 Universal)
C:Granville Bantock
Z:Fu Du
Z:Creative Commons copyright waiver (CC0 1.0 Universal)
%%score 1 { ( 2 5 7 ) | ( 3 4 6 ) }
L:1/8
Q:1/4=80
M:4/4
K:C
V:1 treble nm="Voice"
V:2 treble nm="Piano"
V:5 treble 
V:7 treble 
V:3 bass 
V:4 bass 
V:6 bass 
V:1
"^Misterioso, alla marcia." z8 | z8 | z8 | z8 | z8 | z8 | z8 | z8 | z8 | %9
w: |||||||||
w: |||||||||
"^Molto rubato" z!p! A A2- (3A A A A A | (3A A A z2 z A A A | %11
w: The winds _ and the pines are|whis- per- ing, The ri- ver|
w: Le vent _ et les ar- bres|mur- mu- rent: La ri- viè-|
"^Note to transcriber:\nFor the French lyrics we follow the standard\nof starting a new system with a dash when the\nword starts on the previous system.\n" (3F F F G2- G z z G | %12
w: girds in its flight, _ My|
w: \- re se dé- rou- le; Mon|
!p! ^F F ^c2- c c c c | ^G2- G E E E E E | %14
w: foot- falls sound _ through an- cient|tiles _ Where grey rats flit from|
w: pas ré- son- * ne sur les|dalles, * Trou- blant les rats fur-|
"^accel. molto"[Q:1/4=85] ^F2-[Q:1/4=90] F z[Q:1/4=95] z4[Q:1/4=100] | %15
w: sight. _|
w: tifs: _|
[Q:1/4=105] z8[Q:1/4=110][Q:1/4=115][Q:1/4=120] ||"^Poco Largamente" !fermata!z8[Q:1/4=80] | z8 | %18
w: |||
w: |||
 z!mp! G G G B B B B | B4- B z z2 | z8 |"^Grave"[Q:1/4=60] z!mf! ^G G2- G G G G | ^c4- c ^C C C | %23
w: What mo- narch raised those pa- lace|walls? _||Who knows _ to- day his|name _ Who left be-|
w: Quel mo- narque a bâ- ti ces|murs? _||Qui donc * con- nait le|nom _ De ce- lui|
"^Not to transcriber:\nFor English lyrics we follow the IMSLP\nversion's method of hyphenating words\nthat continue on the next system\n" ^C C ^F2- F F F F | %24
w: \- neath yon pre- * ci- pice The|
w: qui lais- sa * ja- dis, Ce|
 ^F F- (3F F F B4- |[Q:1/4=55] B"^rit." z z2 z4 ||"^Misterioso lentando" z8[Q:1/4=65] | z8 | z8 | %29
w: stone wrack * of his fame?|||||
w: ves- ti- * ge de gloi-|re?||||
 z!p! B d2- d d ^c c | =c A A4 (3B B B | G A"_Accent on fantômes\nshould be circimflex\n" E4- E z | %32
w: Like jets _ of dusk- y|blue I see Ghosts from the|gloom a- rise, _|
w: Je vois, * com- me des|feux fol- lets, Se dres- ser|des fan- tô- mes;|
 z2!p! (3^F F F G3 G | c c B6- | B4 ^F2 =c B | z2 z"^dim." E A2 A2-[Q:1/4=63] | %36
w: Down the for- got- ten|road re- turn|_ Strange ru- mours|and faint sighs.|
w: Et, du pas- sé, j’en-|tends mon- ter|_ Des sou- pirs,|des plain- tes.|
 A z"^rall. poco a poco" z2 z4[Q:1/4=61][Q:1/4=59] | z8[Q:1/4=56] || %38
w: _||
w: _||
"^Maestoso"[Q:1/4=72] z2!mp! E2 G2 D2 | G2 ^F4 =F _B | G2- G z!p! =B2- (3B B B | d4- d A _B2- | %42
w: The thou- sand|voi- ces of the|void _ Blend * to a|chant _ bi- zarre,|
w: Le vi- de|gé- mit, et ses|voix _ For- * ment un|choeur _ é- trange,|
 _B z!mp! (3z =B B B B G2- | G G (3A ^F F z4 | z!<(! E ^G B!<)!"^cresc." e4- | e3 E!f! E4- | %46
w: _ And the pur- ple leaves|_ are car- pet- ed|For Au- tumn’s a-|\- - va- tar.|
w: _ Et le vent é- tend,|* pour l’Au- tom- ne,|Le ta- pis d’or|_ des feuilles.|
"^Allargando."[Q:1/4=70] E z z2 z4 |[Q:1/4=68] z8 ||"^Largamente."[Q:1/4=66] z!mf! A A B d3 ^c | %49
w: _||The death- doomed le- gions|
w: _||Sur le che- min des|
 =c3 =B _B2- (3B E E | E4- E C E A | e8- | e z z c f3 e | %53
w: thun- der past _ In the|wake _ of fleet- ing|years;|_ I fain would|
w: ans, j'en- tends, _ Vers la|mort, _ mar- cher les|hommes;|_ Ma voix vou-|
"^poco                       a                     poco"[Q:1/4=68] ^d4-[Q:1/4=72] d ^D D D | %54
w: drown _ their tramp with|
w: drait _ cou- vrir leurs|
[Q:1/4=76]"^stringendo." E8-[Q:1/4=80] |"^Animando molto."[Q:1/4=100] E z z2[Q:1/4=108] z4 | %56
w: song,|_|
w: pas,|_|
[Q:1/4=116] z8[Q:1/4=124] | z27[Q:1/4=130][Q:1/4=140][Q:1/4=150][Q:1/4=180] | %58
w: ||
w: ||
"^Allargando"[Q:1/4=80] !fermata!z2!mp! E2 E2 E2 | E6 E2 | !>!=F8- | F z!p! A2 F2 D2 | %62
w: But all my|songs are|tears,|_ but all my|
w: Mais je n’ai|que les|pleurs,|_ mais je n’ai|
"^rall." [Cc]6 [B,B]2 ||"^Maestoso"[Q:1/4=72] [A,A]8- | [A,A] z z2 z4 | z8 | z8 | z8 | z8 | z8 | %70
w: songs are|tears.|_||||||
w: que les|pleurs.|_||||||
 z8 |] %71
w: |
w: |
V:2
!p! z (E, E2- E)(E, E2- | E)(E, E2- E)(E,"_poco  cresc." E2- | E)(E, E2- E)E, E2- | %3
!<(! E(E, E2- E) z!<)! (E,E) |!mp! z (A, A2- A)(A, A2- | A)(A, A2- A)(A, A2- | %6
 A)!>(!(A, A2- A)(A, A2-!>)! | A) z!p! ([_B^c]2 [Ad]2 [=F^G]2 | %8
 !stemless![EA]) z"_dim." ([_B,^C]2!>(! [A,D]2[I:staff +1] [=F,^G,]2!>)! | %9
 [^C,E,A,])[I:staff -1] z z2!pp! [Ae]4- | z2!ppp! (5:4:5(_b/d'/a/^g/^c'/) x4 | %11
 x2!p!!<(! (d4 _e2)!<)! |"_dim." z4 (^G4- | ^G2 A2- A) z!<(! (6:4:6(B/c/d/c/e/^f/)!<)! | %14
!p!!>(! (6:4:6(b/a/^f/b/a/f/) (6:4:6(d'/c'/a/d'/c'/a/)!8va(! (6:4:6(^f'/e'/c'/f'/e'/c'/) (6:4:6(b'/a'/f'/b'/a'/f'/)!>)! | %15
"_dim. molto" (6:4:6(=c'/^f'/^c'/^^f'/d'/^g'/ (6:4:6_e'/a'/=e'/!p!!>(!^a'/=f'/=b'/ (6:4:6_g'/=c''/=g'/^c''/_a'/d''/ (6:4:6=a'/^d''/_b'/=e''/=b'/!pp!^e''/)!8va)!!>)! || %16
 z4!mf! !tenuto!E4- | E2 !tenuto![DG]2 !tenuto![D^F]2 !tenuto![_D=F]2 |!p! E8 | %19
 z2!pp! ([Bd^f]2 [=ceg]2) ([Ace]2 | [B^d^f]4-) [Bdf] z z2 |!p! (^G8- | G4 =G4) | (^F8- | F4 =F4- | %25
"_dim." F2 [D^F]2)!>(! D4!>)! ||"^."!p! !stemless!^D z!p! ([c^d]2 [Be]2 [G^A]2 | %27
 [^FB]) z"_cresc." ([=Bb][^A^a] [=A=a][Gg] [^F^A^c^f][Ee] | %28
 !arpeggio!!fermata![^FB^d]) z!pp! (b2 ^a2 =a2 | ^g2) (=c'2 b2 _b2 | %30
 =a2)"_cresc.       poco       a       poco" (^c'2 =c'2 b2 | _b2)!<(! (=d'2 ^c'2 ^b2!<)! | %32
 =b2) ([^f^f'][^e^e'] [=e=e'][^d^d'] [=d=d'][^c^c'] | [=c=c']^f) (b^a"_dim." =a^g =g^f | %34
"_poco" =fB) (e^d =d^c =cB |"_a" _BE) (A^G =G^F =FE |"_poco" !tenuto!^D4) !tenuto!D4 | %37
!>(! !tenuto!^D4 !tenuto![A,D]4!>)! || z2!p! (E4 [=DG]2- | [DG]2 !tenuto![D^F]4 !tenuto![_D=F]2- | %40
 !stemless![DF]) z!pp! !tenuto![G=Be]4 !tenuto![G=dg]2- | %41
 [Gdg]2 !tenuto![Ad^f]4 !tenuto![_B_d=f]2- | [_B_df] z!p! !tenuto!E4 !tenuto![=DG]2- | %43
 [DG]2 !tenuto![D^F]4 !tenuto![_D=F]2- | %44
 !stemless![DF] z"_cresc.   poco" !tenuto![=DE]4!mf! !tenuto![CE]2- | %45
 [CE]2!<(! !tenuto![CE]4!<)!!mf! !tenuto!E2- | !stemless!E!mp!"_cresc." z !>![DE]4 !>![A,C=F]2- | %47
!mf! !stemless![A,CF]2!<(! !>![^C^F]4!<)! !>!G!>!^G || %48
!f! .A!arpeggio!.[Ace]!arpeggio!.[cea] z z !arpeggio!.[Adf]!arpeggio!.[dfa] z | %49
 z !arpeggio!.[cea]!arpeggio!.[eac'] z z !arpeggio!.[^Gde]!arpeggio!.[^ge'] z | %50
 z !arpeggio!.[EAc]!arpeggio!.[Ace] z z !arpeggio!.[Acf]!arpeggio!.[cfa] z | %51
 z !arpeggio!.[EAd]!arpeggio!.[Adg] z z2 !arpeggio!.[E^Ge] z | %52
"_cresc." z !arpeggio!.[Ace]!arpeggio!.[cea] z"_poco" z !arpeggio!.[Acf]!arpeggio!.[cfa] z | %53
"_a" z !arpeggio!.[Ac^f]!arpeggio!.[cfa] z"_poco" z !arpeggio!.[cfa]!arpeggio!.[^df=c'] z | %54
 z !arpeggio!.[_B^cg]!arpeggio!.[cg_b] z z !arpeggio!.[eg^c']!arpeggio!.[g_be'] z | %55
 z [=b=b'][aa'][gg'] z [gg'][^f^f'][ee'] | z [ee']!<(![=d=d'][=c=c'] z!<)! [Bb][Aa][Gg] | %57
"^Cadenza entered by mike320" !^![G_B^ce]8- x16 x3 | x z z2 z4 |!p!!<(! [DE-]8!<)! | %60
!>(! !>![CEF]8!>)! |"_dim." ([CDFA]8 |!>(! F4 E4-!>)! ||!pp!!<(! [CE])(E, E2-!<)! E)(E,EE,) | %64
 z (E, E2- E)(E,EE,) |"_dim." z (E,EE,) z (E,EE,) | z (E,EE,)!>(! z (E,EE,)!>)! | %67
 z4[K:bass]"^rall.  poco a poco" ([_B,^C]4 |!<(! [A,D]4 [=F,^G,B,]4!<)! | %69
 .[E,A,]) z z2"^R.H."!>(! ([F,^G,B,]4!>)! |!pp! !fermata![E,A,^C]8) |] %71
V:3
"_espress." A,3 B, D3 ^C | =C3 B, _B,3 E, | A,3 C [E,,E,]3 [^D,,^D,] | %3
 [=D,,=D,]3 [^C,,^C,] [=C,,=C,][B,,,B,,] z ([E,,,E,,] | [A,,,A,,]3 [C,,C,] [F,,F,]3 [E,,E,] | %5
 [^D,,^D,]3 [E,,E,] [C,,C,]3 [^D,,^D,] | [B,,,B,,]3 [=D,,=D,] [_B,,,_B,,]3 [^C,,^C,]) | %7
"_sost." A,8- | A, z"_espr." (A,^G, =G,F, E,D, | [A,,,A,,]) z z2 z4 | ([_B,D]4 [A,^C]4- | %11
"_pizz." [A,^C]) z z2 ([_A,=C]2 [G,=B,]2) | [=B,,^G,]8 | [A,,^F,]8- | %14
 (3.[A,,^F,].C,.E, (3.^F,.A,.C[K:treble] (3.E.^F.A (3.c.e.^f | %15
 (3.g.^g.a (3._b.=b.c'!8va(! (3._d'.=d'._e' (3.=e'.=f'.^f'!8va)! ||[K:bass] z4 !tenuto![E,,E,]4- | %17
 [E,,E,]2 !tenuto![B,,,B,,]2 !tenuto![D,,D,]2 !tenuto![_B,,,_B,,]2 | [G,=B,]8 |"_sost." x8 | %20
 z2!p! [B,^F]4 [B,F]2 | ^G,8- | G,4 =G,4 | ^F,8- | ^F,4 =F,4- | [F,B,]2 [^F,B,]2 [G,_B,]4 || %26
 x z"_espress." [=C^D]2 [B,E]2 [G,^A,]2 | [^F,B,] z ([=C^D]2 [B,E]2 [G,^A,^C]2 | %28
 [B,,^F,B,^D]) z (B,,=C, ^C,=D, ^D,E, | =F,B,) (^F,G, ^G,A, ^A,B, | %30
 [B,,=C]^F)[K:treble] (^CD ^DE ^E^F | G^c) (^GA ^AB ^B^c | %32
 d^g)[K:bass]{/[B,,,B,,]} ([B,D^F]2 [B,D=G-]2 [_B,EG]2 | %33
 [A,^D^F]2-) x2[K:treble] ([_D_F_B]2 [C_E=A]2 | %34
 [=B,=D^G]2)[K:bass] .[B,,,B,,] z ([A,_E^F]2 [_A,D=F]2 | [G,^CE]2-) x2 [_A,_B,D]2 [G,=A,^C]2 | %36
 (=C=B,) z (=D CB,) z (C | B,^A,) z (=A,/^G,/) (=G,3 ^F,) || z2 [E,,E,]4 [B,,,B,,]2- | %39
 [B,,,B,,]2 [D,,D,]4 [_B,,,_B,,]2- | [B,,,B,,] z x2 x4 | x8 | z2 [E,,E,]4 [=B,,,=B,,]2- | %43
 [B,,,B,,]2 [D,,D,]4 [_B,,,_B,,]2- | [B,,,B,,] z [E,,E,]4 [C,,C,]2- | %45
 [C,,C,]2 [A,,,A,,]4 [E,,,E,,]2- | [E,,,E,,] z z ([E,,,E,,] [E,,E,]3) ([E,,,E,,] | %47
 [^D,,^D,]3) ([E,,,E,,] [=C,,=C,])!>![B,,,B,,]!>![_B,,,_B,,]!>![E,,,E,,] || %48
"_espress." (A,3 =B,) (D3 ^C) | (=C3 =B,) (_B,3 E,) | (A,3 C) (E3 ^D) | (=D3 ^C) .=C.=B, z .E, | %52
 (A,3 C) (F3 E) |[I:staff -1] (^D3 ^F) (A3 ^G) | (=G3 _B) (^c3 =c) | =B!ff! !>![B,EGB]2 A G3 ^F | %56
[I:staff +1] !>![E,E]3 !>![=D,=D] !>![=C,=C]3 !>![B,,B,] | %57
 .[_B,,_B,] z!ped! _B,,,2- (B,,,^C,,E,,G,,_B,,^C,E,G,[K:treble]_B,^CE!<(![I:staff -1]{/x}G{/x}_B{/x}^c{/x}eg_b^c'e'!8va(!g'_b'^c''e''!<)! | %58
[I:staff +1][K:bass][I:staff -1]g'')!8va)![I:staff +1] x7!ped-up! | ^G,8 | A,8 | x8 | (C6 =B,2) || %63
"_espress." A,3 B, D4 |!<(! A,3 B,!<)! D4 | ^C4 =C4 | B,2 C2 _B,4 | %67
 A, z!p!"^R.H.""_L.H." (A,4 ^G,2 | =G,2 F,2 E,2 D,2 | %69
"^add staccato\n(  )       \n" .^C,) z"^L.H." ([E,,E,]4 [D,,D,]2 | !fermata![A,,,A,,]8) |] %71
V:4
 ([A,,,A,,]3 [B,,,B,,] [D,,D,]3 [^C,,^C,] | [=C,,=C,]3 [B,,,B,,] [_B,,,_B,,]3 [E,,,E,,]) | %2
 [A,,,A,,]3 [C,,C,] x4 | x8 | x8 | x8 | x8 | [A,,,A,,]8- | [A,,,A,,] x7 | x8 | x8 | .[A,,,A,,] x7 | %12
 z .B,,, z .B,,,.B,,, z .B,,, z | z .A,,, z .A,,,.A,,, z z2 | x4[K:treble] x4 | %15
 x4!8va(! x4!8va)! ||[K:bass] x8 | x8 | (C,4 ^C,4 | [G,,D,]8) | x2 [^G,,^D,]4 [G,,D,]2 | %21
 [E,,B,,]8 | [A,,E,]8 | [D,,A,,]8 | [G,,D,]8 | [B,,,B,,]4 ([E,,E,]4 || %26
 [=B,,,=B,,]) x (B,^A, =A,G, ^F,E, | ^D,B,,) x6 | x2 (B,,6 | B,,) z B,,6- | x2[K:treble] x6 | x8 | %32
 x2[K:bass] x6 | x2 .[B,,,B,,] x[K:treble] x4 | x2[K:bass] x6 | x2 .[=B,,,=B,,] x5 | %36
 [^F,A,]2 .[B,,,B,,] z [F,A,]2 .[B,,,B,,] z | [^F,A,]2 .[=C,,=C,] z z2 .[B,,,B,,] z || x8 | x8 | %40
 x8 | x8 | x8 | x8 | x8 | x8 | x8 | x8 || ([A,,,A,,]3 [=B,,,=B,,]) ([D,,D,]3 [^C,,^C,]) | %49
 ([=C,,=C,]3 [=B,,,=B,,]) ([_B,,,_B,,]3 [E,,,E,,]) | ([A,,,A,,]3 [C,,C,]) ([E,,E,]3 [^D,,^D,]) | %51
 ([=D,,=D,]3 [^C,,^C,]) .[=C,,=C,].[=B,,,=B,,] x .[E,,,E,,] | %52
 [A,,,A,,]3 [C,,C,] ([F,,F,]3 [E,,E,]) | ([^D,,^D,]3 [^F,,^F,]) ([A,,A,]3 [^G,,^G,]) | %54
 ([=G,,=G,]3 [_B,,_B,]) ([^C,^C]3 [=C,=C]) | [=B,,=B,] x2 !>!A, !>!G,3 !>!^F, | x8 | %57
 x12[K:treble] x11!8va(! x4 |[K:bass] z8!8va)! | z2 ([_B,,,_B,,]2 [E,,,E,,]2 [D,,D,]2) | %60
 z2 ([A,,,A,,]2 [F,,,F,,]2 [E,,E,]2) | [D,,,D,,]8 | [E,,,E,,]8 || ([A,,,A,,]3 [B,,,B,,] [D,,D,]4) | %64
 ([A,,,A,,]3 [B,,,B,,] [D,,D,]4) | ([^C,,^C,]4 [=C,,=C,]4 | [B,,,B,,]2 [C,,C,]2 [_B,,,_B,,]4 | %67
 [A,,,A,,]) x (A,,4 ^G,,2 | =G,,2 F,,2 E,,2 D,,2 | .^C,,) x7 | x8 |] %71
V:5
 x8 | x8 | x4 E3 ^D | =D3 ^C =CB, x[I:staff +1] E, | A,3 C[I:staff -1] F3 E | ^D3 E C3 ^D | %6
[I:staff +1] B,3 =D _B,3 ^C | x2[I:staff -1] (A^G =G=F ED | ^C) x7 | x8 | [Ae]4 [Af]4- | %11
 [Af] z G6 | [D^F]8 | [=CE]8- | [CE] x3!8va(! x4 | x8!8va)! || x4[I:staff +1] [G,B,]4- | %17
 [G,B,]2 G,2 A,2 _B,2 | x8 | x2[I:staff -1] ([B,D^F]2 [A,CE]2) ([CEG]2 | [B,^D^F]4-) [B,DF] x3 | %21
 (^D4 =D4 | ^C8-) | (^C4 =C4 |[I:staff +1] B,8-) | x8 || [^F,=B,] x[I:staff -1] =B^A =AG ^FE | %27
 ^DB, [c^d]2 [Be]2 G2 | x2 ^f ^e2 =e2 ^d- | ^d=d z ^f2 =f2 =e- | e^d z g2 ^f2 ^e- | %31
 e=e z ^g2 =g2 ^f- | f^e x6 | x8 | x8 | x8 | x8 | x8 || x2[I:staff +1] [G,B,]4 G,2- | %39
 G,2 [^F,A,]4 [=F,_B,]2- | [F,B,] x[I:staff -1] (E4 =B,2- | B,2 D4 [_B,=F]2- | %42
 [_B,F]2)[I:staff +1] [G,=B,]4 G,2- | G,2 A,4 [F,_B,]2- | [F,B,] x ^G,4 =G,2- | G,2 ^F,4 [G,B,]2- | %46
 [G,B,] x [=F,^G,B,]4 =F,2- | F,2 ^F,4 G,^G, || %48
 x[I:staff -1] !arpeggio!.[A,CE]!arpeggio!.[CEA] x2 !arpeggio!.[A,DF]!arpeggio!.[DFA] x | %49
 x !arpeggio!.[CEA]!arpeggio!.[EAc] x2 !arpeggio!.[^G,DE]!arpeggio!.[^Gde] x | %50
 x[I:staff +1] !arpeggio!.[E,A,C]!arpeggio!.[A,CE] x2[I:staff -1] !arpeggio!.[A,CF]!arpeggio!.[CFA] x | %51
 x[I:staff +1] !arpeggio!.[E,A,D]!arpeggio!.[A,DG] x3 !arpeggio!.[E,^G,D] x | %52
 x[I:staff -1] !arpeggio!.[A,CE]!arpeggio!.[CEA] x2 !arpeggio!.[A,CF]!arpeggio!.[CFA] x | %53
 x !arpeggio!.[A,C^F]!arpeggio!.[CFA] x2 !arpeggio!.[CFA]!arpeggio!.[^DFc] x | %54
 x !arpeggio!.[_B,^CG]!arpeggio!.[CG_B] x2 !arpeggio!.[EG^c]!arpeggio!.[G_Be] x | x8 | x8 | x27 | %58
 x8 | x8 | x8 | x8 | [D^G]8 || x8 | x8 | x8 | x8 | x4[K:bass] x4 | x8 | x8 | x8 |] %71
V:6
 x8 | x8 | x8 | x8 | x8 | x8 | x8 | x8 | x8 | x8 | x8 | x8 | x8 | x8 | x4[K:treble] x4 | %15
 x4!8va(! x4!8va)! ||[K:bass] x8 | x8 | E,,8 | x8 | x8 | x8 | x8 | x8 | x8 | x8 || x8 | x8 | x8 | %29
 x8 | x2[K:treble] x6 | x8 | x2[K:bass] x6 | x4[K:treble] x4 | x2[K:bass] x6 | x8 | x8 | x8 || x8 | %39
 x8 | x8 | x8 | x8 | x8 | x8 | x8 | x8 | x8 || x8 | x8 | x8 | x8 | x8 | x8 | x8 | x8 | x8 | %57
 x12[K:treble] x11!8va(! x4 |[K:bass] x!8va)! x7 | x8 | x8 | x8 | x8 || x8 | x8 | x8 | x8 | x8 | %68
 x8 | x8 | x8 |] %71
V:7
 x8 | x8 | x8 | x8 | x8 | x8 | x8 | x8 | x8 | x8 | x8 | x8 | x8 | x8 | x4!8va(! x4 | x8!8va)! || %16
 x8 | x8 | x8 | [B,^FB]8 | x8 | x8 | x8 | x8 | x8 | x8 || x8 | x8 | x8 | x8 | x8 | x8 | x8 | x8 | %34
 x8 | x8 | x8 | x8 || x8 | x8 | x8 | x8 | x8 | x8 | x8 | x8 | x8 | x6 [=DE]2 || x8 | x8 | x8 | x8 | %52
 x8 | x8 | x8 | x8 | x8 | x27 | x8 | x8 | x8 | x8 | x8 || x8 | x8 | x8 | x8 | x4[K:bass] x4 | x8 | %69
 x8 | x8 |] %71

